apps/sim/public/landing/docs-getting-started.svg

<svg fill="none" height="476" viewBox="0 0 591 476" width="591" xmlns="http://www.w3.org/2000/svg"><path d="m1.30078 1.29688h587.97v472.934h-587.97z" stroke="#313131" stroke-width="2.6011"/><path d="m308.405 122.733v-13.464h3.08v1.318h-1.652v10.828h1.652v1.318zm9.069-1.397-3.176-10.431-.286-.953v-.063h1.763l.031.063.254.953 1.874 6.589c.169.603.291 1.1.365 1.492s.111.588.111.588.037-.196.111-.588c.085-.392.207-.889.366-1.492l1.762-6.335.063-.254.254-.953.016-.063h1.921l.255 1.016 1.825 6.589c.149.614.26 1.116.334 1.508.084.392.127.587.127.587s.037-.195.111-.587c.085-.392.206-.894.365-1.508l1.858-6.589.254-.953.032-.063h1.746v.063l-.302.953-3.127 10.431h-1.89l-2.048-7.192c-.169-.604-.296-1.101-.381-1.493-.074-.391-.111-.587-.111-.587s-.042.196-.127.587c-.085.392-.217.889-.397 1.493l-2.08 7.192zm13.127 0v-11.447h7.51v1.444h-5.859v3.223h4.7v1.461h-4.7v5.319zm6.899-3.461v-1.35h4.874v1.35zm10.189 3.62c-.952 0-1.762-.244-2.429-.731-.656-.497-1.154-1.185-1.492-2.064-.339-.889-.509-1.921-.509-3.096s.17-2.201.509-3.08c.338-.889.836-1.577 1.492-2.064.667-.487 1.477-.73 2.429-.73.953 0 1.757.243 2.414.73.666.487 1.169 1.17 1.508 2.048.349.879.524 1.911.524 3.096 0 1.186-.175 2.223-.524 3.112-.339.879-.842 1.561-1.508 2.048-.657.487-1.461.731-2.414.731zm0-1.445c.91 0 1.593-.402 2.048-1.207.466-.815.699-1.894.699-3.239 0-1.344-.233-2.418-.699-3.223-.455-.804-1.138-1.206-2.048-1.206-.9 0-1.582.402-2.048 1.206-.455.794-.683 1.868-.683 3.223s.228 2.435.683 3.239c.466.805 1.148 1.207 2.048 1.207zm9.73 1.445c-.953 0-1.762-.244-2.429-.731-.657-.497-1.154-1.185-1.493-2.064-.338-.889-.508-1.921-.508-3.096s.17-2.201.508-3.08c.339-.889.836-1.577 1.493-2.064.667-.487 1.476-.73 2.429-.73s1.757.243 2.413.73c.667.487 1.17 1.17 1.509 2.048.349.879.523 1.911.523 3.096 0 1.186-.174 2.223-.523 3.112-.339.879-.842 1.561-1.509 2.048-.656.487-1.46.731-2.413.731zm0-1.445c.91 0 1.593-.402 2.048-1.207.466-.815.699-1.894.699-3.239 0-1.344-.233-2.418-.699-3.223-.455-.804-1.138-1.206-2.048-1.206-.9 0-1.583.402-2.048 1.206-.455.794-.683 1.868-.683 3.223s.228 2.435.683 3.239c.465.805 1.148 1.207 2.048 1.207zm7.365 1.286v-8.256h-2.461v-1.254c.699-.011 1.238-.064 1.62-.159.381-.096.656-.281.825-.556.18-.275.307-.683.381-1.222h1.286v11.447zm7.363.159c-.931 0-1.725-.238-2.381-.715-.646-.487-1.138-1.143-1.477-1.969-.328-.836-.492-1.783-.492-2.842 0-1.27.191-2.371.572-3.302.381-.942.921-1.667 1.619-2.175.699-.508 1.519-.762 2.461-.762.635 0 1.217.111 1.747.333.539.212.989.535 1.349.969.371.434.614.979.73 1.635l-1.587.27h-.064c-.063-.55-.296-.979-.698-1.286-.403-.318-.889-.476-1.461-.476-.614 0-1.148.18-1.604.539-.455.35-.809.831-1.063 1.445s-.387 1.318-.397 2.112c0 .042-.006.085-.016.127v.175c.254-.519.651-.948 1.191-1.287.539-.349 1.18-.523 1.921-.523.709 0 1.349.158 1.921.476.582.317 1.042.757 1.381 1.318.349.561.524 1.212.524 1.953 0 .772-.18 1.46-.54 2.064-.36.603-.852 1.074-1.476 1.413-.625.338-1.345.508-2.16.508zm.032-1.445c.476 0 .9-.111 1.27-.334.371-.222.657-.523.858-.905.211-.381.317-.815.317-1.301 0-.72-.227-1.308-.682-1.763-.456-.455-1.043-.683-1.763-.683-.677 0-1.238.212-1.683.636-.434.412-.741.947-.921 1.603.053.847.323 1.519.81 2.017.487.486 1.085.73 1.794.73zm10.678-10.781v13.464h-3.08v-1.318h1.667v-10.828h-1.667v-1.318z" fill="#fdfdf8"/><path d="m364.041 321.664v-1.35h4.874v1.35zm5.792 0v-1.35h4.874v1.35zm8.827 1.778v-1.556l5.779-2.382-5.779-2.349v-1.572l7.716 3.255v1.349zm14.696 1.683v-11.447h3.604c.815 0 1.567.142 2.255.428.699.275 1.302.672 1.81 1.191.508.508.9 1.111 1.175 1.81.286.699.429 1.461.429 2.286 0 .826-.143 1.588-.429 2.287-.275.698-.667 1.307-1.175 1.826-.508.508-1.111.905-1.81 1.19-.688.286-1.44.429-2.255.429zm1.652-1.445h1.952c.773 0 1.456-.185 2.049-.556.603-.37 1.074-.878 1.413-1.524.338-.645.508-1.381.508-2.207 0-.825-.17-1.561-.508-2.207-.339-.645-.81-1.148-1.413-1.508-.593-.37-1.276-.556-2.049-.556h-1.952zm8.807 1.445v-11.447h7.51v1.444h-5.859v3.223h4.7v1.461h-4.7v3.874h5.859v1.445zm8.644 0v-11.447h4.7c1.132 0 2.021.307 2.667.92.646.604.969 1.419.969 2.446 0 .666-.149 1.259-.445 1.778-.286.508-.704.905-1.254 1.191-.54.285-1.186.428-1.937.428h-3.049v4.684zm1.651-6.129h2.858c.678 0 1.202-.174 1.572-.524.371-.359.556-.836.556-1.428 0-.593-.185-1.059-.556-1.398-.37-.349-.894-.524-1.572-.524h-2.858zm7.645 6.129v-11.447h1.651v10.002h5.557v1.445zm12.223.159c-.826 0-1.582-.143-2.27-.429-.688-.296-1.286-.709-1.795-1.238-.508-.53-.905-1.149-1.19-1.858-.276-.72-.413-1.508-.413-2.366 0-.846.137-1.624.413-2.334.285-.719.682-1.344 1.19-1.873.509-.529 1.107-.937 1.795-1.223.688-.296 1.444-.444 2.27-.444.815 0 1.567.148 2.255.444.698.286 1.301.694 1.81 1.223.508.519.899 1.138 1.174 1.858.286.709.429 1.492.429 2.349 0 .858-.143 1.646-.429 2.366-.275.72-.666 1.344-1.174 1.874-.509.518-1.112.926-1.81 1.222-.688.286-1.44.429-2.255.429zm0-1.445c.773 0 1.455-.191 2.048-.572.603-.391 1.075-.92 1.413-1.587.339-.667.508-1.429.508-2.287 0-.857-.169-1.619-.508-2.286-.338-.667-.81-1.191-1.413-1.572-.593-.381-1.275-.571-2.048-.571s-1.461.19-2.064.571c-.593.381-1.059.905-1.397 1.572-.339.667-.508 1.429-.508 2.286 0 .858.169 1.62.508 2.287.338.667.804 1.196 1.397 1.587.603.381 1.291.572 2.064.572zm8.829 1.286v-4.779l-3.398-5.652-.572-.953v-.063h1.794l.032.063.556.953 2.413 4.08 2.445-4.08.556-.953.048-.063h1.746v.063l-.572.953-3.397 5.652v4.779zm11.657 1.397v-13.464h3.08v1.318h-1.651v10.828h1.651v1.318zm5.513-1.397v-.064l.381-.952 4.113-10.431h1.603l4.112 10.431.397.952v.064h-1.778l-.032-.064-.349-.952-.699-1.826h-4.937l-.699 1.826-.365.952-.032.064zm3.366-4.287h3.827l-1.906-4.969zm12.662 4.446c-.731 0-1.429-.122-2.096-.365-.667-.244-1.265-.609-1.794-1.096-.519-.487-.932-1.095-1.239-1.826-.296-.741-.444-1.609-.444-2.604 0-.984.153-1.841.46-2.572.307-.741.72-1.355 1.239-1.841.529-.487 1.127-.853 1.794-1.096s1.36-.365 2.08-.365c.857 0 1.635.148 2.334.444.698.297 1.275.715 1.73 1.255.466.529.757 1.153.873 1.873l-1.635.381h-.063c-.075-.497-.265-.931-.572-1.302-.296-.381-.677-.677-1.143-.889-.455-.212-.963-.317-1.524-.317-.741 0-1.408.174-2.001.524-.582.338-1.042.836-1.381 1.492-.328.656-.492 1.461-.492 2.413 0 .953.164 1.763.492 2.43.339.656.799 1.159 1.381 1.508.593.339 1.26.508 2.001.508.846 0 1.561-.228 2.143-.683.593-.465.958-1.111 1.096-1.937l1.698.254c-.137.815-.439 1.509-.905 2.08-.465.561-1.047.99-1.746 1.286-.688.297-1.45.445-2.286.445zm8.217-.159v-10.003h-3.604v-1.444h8.843v1.444h-3.588v10.003zm7.831-1.016v.952.064h-1.652v-.064-.952-9.415-.953-.063h1.652v.063.953zm5.177 1.016-3.937-10.431-.366-.953v-.063h1.763l.032.063.349.953 2.985 8.24 2.969-8.24.349-.953.032-.063h1.73v.063l-.365.953-3.937 10.431zm6.659 0v-11.447h7.509v1.444h-5.858v3.223h4.699v1.461h-4.699v3.874h5.858v1.445zm13.903-12.067v13.464h-3.081v-1.318h1.668v-10.828h-1.668v-1.318z" fill="#fdfdf8"/><rect fill="#f9d0de" height="15.0011" rx="7.50055" width="259.957" x="137.172" y="159.391"/><rect fill="#ff22fc" height="15.0011" rx="7.50055" width="140.758" x="137.172" y="188.359"/><rect fill="#64fefb" height="15.0011" rx="7.50055" width="175.307" x="137.172" y="217.32"/><path d="m382.049 117.258h34.504c2.193 0 3.97 1.777 3.97 3.969v126.459c0 2.192-1.777 3.969-3.97 3.969h-294.377c-2.192 0-3.969-1.777-3.969-3.969v-126.459c0-2.192 1.777-3.969 3.969-3.969h177.085" stroke="#4d4d4d" stroke-width="1.98464"/><path d="m199.48 339.633h229.117 104.1c2.192 0 3.969-1.777 3.969-3.969v-33.189c0-2.192-1.777-3.969-3.969-3.969h-333.217c-2.193 0-3.97 1.777-3.97 3.969v33.188c0 2.193 1.777 3.97 3.97 3.97z" stroke="#4d4d4d" stroke-width="1.98464"/><path d="m430.33 213.617h18.23v18.23h-18.23z" fill="#b4fdf9" transform="matrix(0 1 -1 0 643.947 -216.713)"/><path d="m416.953 223.126.742-.756 2.626 2.639v-6.983h1.169v6.97l2.639-2.612.728.756-3.959 3.931z" fill="#1b1b1b"/><rect fill="#fa4edf" height="15.3731" rx="3.08019" transform="matrix(1 0 0 -1 236.812 326.75)" width="15.3731"/><rect fill="#fa4edf" height="15.3731" rx="3.08019" transform="matrix(1 0 0 -1 311.371 326.75)" width="15.3731"/><rect height="14.141" rx="2.46415" stroke="#ffcc02" stroke-width="1.23208" width="14.141" x="212.579" y="311.999"/><path d="m289.602 311.999h9.212c1.361 0 2.464 1.103 2.464 2.464v9.213c0 1.361-1.103 2.464-2.464 2.464h-9.212c-1.361 0-2.464-1.103-2.464-2.464v-9.213c0-1.361 1.103-2.464 2.464-2.464z" stroke="#ffcc02" stroke-width="1.23208"/><rect fill="#fa4edf" fill-opacity=".48" height="15.3731" rx="3.08019" transform="matrix(1 0 0 -1 261.672 326.766)" width="15.3731"/><rect fill="#fa4edf" fill-opacity=".48" height="15.3731" rx="3.08019" transform="matrix(1 0 0 -1 336.221 326.766)" width="15.3731"/><g stroke="#4d4d4d" stroke-width="1.98464"><path d="m217.22 117.364v-22.2262c0-2.1921-1.777-3.9692-3.969-3.9692h-40.42c-2.193 0-3.97-1.7771-3.97-3.9693v-85.19149"/><path d="m221.242 252.867v43.825"/><path d="m496.906 339.617v133.32"/></g></svg>

<svg width="591" height="476" viewBox="0 0 591 476" fill="none" xmlns="http://www.w3.org/2000/svg">
<rect x="1.30078" y="1.29688" width="587.97" height="472.934" stroke="#313131" stroke-width="2.6011"/>
<path d="M308.405 122.733V109.269H311.485V110.587H309.833V121.415H311.485V122.733H308.405ZM317.474 121.336L314.298 110.905L314.012 109.952V109.889H315.775L315.806 109.952L316.06 110.905L317.934 117.494C318.103 118.097 318.225 118.594 318.299 118.986C318.373 119.378 318.41 119.574 318.41 119.574C318.41 119.574 318.447 119.378 318.521 118.986C318.606 118.594 318.728 118.097 318.887 117.494L320.649 111.159L320.712 110.905L320.966 109.952L320.982 109.889H322.903L323.158 110.905L324.983 117.494C325.132 118.108 325.243 118.61 325.317 119.002C325.401 119.394 325.444 119.589 325.444 119.589C325.444 119.589 325.481 119.394 325.555 119.002C325.64 118.61 325.761 118.108 325.92 117.494L327.778 110.905L328.032 109.952L328.064 109.889H329.81V109.952L329.508 110.905L326.381 121.336H324.491L322.443 114.144C322.274 113.54 322.147 113.043 322.062 112.651C321.988 112.26 321.951 112.064 321.951 112.064C321.951 112.064 321.909 112.26 321.824 112.651C321.739 113.043 321.607 113.54 321.427 114.144L319.347 121.336H317.474ZM330.601 121.336V109.889H338.111V111.333H332.252V114.556H336.952V116.017H332.252V121.336H330.601ZM337.5 117.875V116.525H342.374V117.875H337.5ZM347.689 121.495C346.737 121.495 345.927 121.251 345.26 120.764C344.604 120.267 344.106 119.579 343.768 118.7C343.429 117.811 343.259 116.779 343.259 115.604C343.259 114.429 343.429 113.403 343.768 112.524C344.106 111.635 344.604 110.947 345.26 110.46C345.927 109.973 346.737 109.73 347.689 109.73C348.642 109.73 349.446 109.973 350.103 110.46C350.769 110.947 351.272 111.63 351.611 112.508C351.96 113.387 352.135 114.419 352.135 115.604C352.135 116.79 351.96 117.827 351.611 118.716C351.272 119.595 350.769 120.277 350.103 120.764C349.446 121.251 348.642 121.495 347.689 121.495ZM347.689 120.05C348.599 120.05 349.282 119.648 349.737 118.843C350.203 118.028 350.436 116.949 350.436 115.604C350.436 114.26 350.203 113.186 349.737 112.381C349.282 111.577 348.599 111.175 347.689 111.175C346.789 111.175 346.107 111.577 345.641 112.381C345.186 113.175 344.958 114.249 344.958 115.604C344.958 116.959 345.186 118.039 345.641 118.843C346.107 119.648 346.789 120.05 347.689 120.05ZM357.419 121.495C356.466 121.495 355.657 121.251 354.99 120.764C354.333 120.267 353.836 119.579 353.497 118.7C353.159 117.811 352.989 116.779 352.989 115.604C352.989 114.429 353.159 113.403 353.497 112.524C353.836 111.635 354.333 110.947 354.99 110.46C355.657 109.973 356.466 109.73 357.419 109.73C358.372 109.73 359.176 109.973 359.832 110.46C360.499 110.947 361.002 111.63 361.341 112.508C361.69 113.387 361.864 114.419 361.864 115.604C361.864 116.79 361.69 117.827 361.341 118.716C361.002 119.595 360.499 120.277 359.832 120.764C359.176 121.251 358.372 121.495 357.419 121.495ZM357.419 120.05C358.329 120.05 359.012 119.648 359.467 118.843C359.933 118.028 360.166 116.949 360.166 115.604C360.166 114.26 359.933 113.186 359.467 112.381C359.012 111.577 358.329 111.175 357.419 111.175C356.519 111.175 355.836 111.577 355.371 112.381C354.916 113.175 354.688 114.249 354.688 115.604C354.688 116.959 354.916 118.039 355.371 118.843C355.836 119.648 356.519 120.05 357.419 120.05ZM364.784 121.336V113.08H362.323V111.826C363.022 111.815 363.561 111.762 363.943 111.667C364.324 111.571 364.599 111.386 364.768 111.111C364.948 110.836 365.075 110.428 365.149 109.889H366.435V121.336H364.784ZM372.147 121.495C371.216 121.495 370.422 121.257 369.766 120.78C369.12 120.293 368.628 119.637 368.289 118.811C367.961 117.975 367.797 117.028 367.797 115.969C367.797 114.699 367.988 113.598 368.369 112.667C368.75 111.725 369.29 111 369.988 110.492C370.687 109.984 371.507 109.73 372.449 109.73C373.084 109.73 373.666 109.841 374.196 110.063C374.735 110.275 375.185 110.598 375.545 111.032C375.916 111.466 376.159 112.011 376.275 112.667L374.688 112.937H374.624C374.561 112.387 374.328 111.958 373.926 111.651C373.523 111.333 373.037 111.175 372.465 111.175C371.851 111.175 371.317 111.355 370.861 111.714C370.406 112.064 370.052 112.545 369.798 113.159C369.544 113.773 369.411 114.477 369.401 115.271C369.401 115.313 369.395 115.356 369.385 115.398C369.385 115.44 369.385 115.498 369.385 115.573C369.639 115.054 370.036 114.625 370.576 114.286C371.115 113.937 371.756 113.763 372.497 113.763C373.206 113.763 373.846 113.921 374.418 114.239C375 114.556 375.46 114.996 375.799 115.557C376.148 116.118 376.323 116.769 376.323 117.51C376.323 118.282 376.143 118.97 375.783 119.574C375.423 120.177 374.931 120.648 374.307 120.987C373.682 121.325 372.962 121.495 372.147 121.495ZM372.179 120.05C372.655 120.05 373.079 119.939 373.449 119.716C373.82 119.494 374.106 119.193 374.307 118.811C374.518 118.43 374.624 117.996 374.624 117.51C374.624 116.79 374.397 116.202 373.942 115.747C373.486 115.292 372.899 115.064 372.179 115.064C371.502 115.064 370.941 115.276 370.496 115.7C370.062 116.112 369.755 116.647 369.575 117.303C369.628 118.15 369.898 118.822 370.385 119.32C370.872 119.806 371.47 120.05 372.179 120.05ZM382.857 109.269V122.733H379.777V121.415H381.444V110.587H379.777V109.269H382.857Z" fill="#FDFDF8"/>
<path d="M364.041 321.664V320.314H368.915V321.664H364.041ZM369.833 321.664V320.314H374.707V321.664H369.833ZM378.66 323.442V321.886L384.439 319.504L378.66 317.155V315.583L386.376 318.838V320.187L378.66 323.442ZM393.356 325.125V313.678H396.96C397.775 313.678 398.527 313.82 399.215 314.106C399.914 314.381 400.517 314.778 401.025 315.297C401.533 315.805 401.925 316.408 402.2 317.107C402.486 317.806 402.629 318.568 402.629 319.393C402.629 320.219 402.486 320.981 402.2 321.68C401.925 322.378 401.533 322.987 401.025 323.506C400.517 324.014 399.914 324.411 399.215 324.696C398.527 324.982 397.775 325.125 396.96 325.125H393.356ZM395.008 323.68H396.96C397.733 323.68 398.416 323.495 399.009 323.124C399.612 322.754 400.083 322.246 400.422 321.6C400.76 320.955 400.93 320.219 400.93 319.393C400.93 318.568 400.76 317.832 400.422 317.186C400.083 316.541 399.612 316.038 399.009 315.678C398.416 315.308 397.733 315.122 396.96 315.122H395.008V323.68ZM403.815 325.125V313.678H411.325V315.122H405.466V318.345H410.166V319.806H405.466V323.68H411.325V325.125H403.815ZM412.459 325.125V313.678H417.159C418.291 313.678 419.18 313.985 419.826 314.598C420.472 315.202 420.795 316.017 420.795 317.044C420.795 317.71 420.646 318.303 420.35 318.822C420.064 319.33 419.646 319.727 419.096 320.013C418.556 320.298 417.91 320.441 417.159 320.441H414.11V325.125H412.459ZM414.11 318.996H416.968C417.646 318.996 418.17 318.822 418.54 318.472C418.911 318.113 419.096 317.636 419.096 317.044C419.096 316.451 418.911 315.985 418.54 315.646C418.17 315.297 417.646 315.122 416.968 315.122H414.11V318.996ZM421.755 325.125V313.678H423.406V323.68H428.963V325.125H421.755ZM433.978 325.284C433.152 325.284 432.396 325.141 431.708 324.855C431.02 324.559 430.422 324.146 429.913 323.617C429.405 323.087 429.008 322.468 428.723 321.759C428.447 321.039 428.31 320.251 428.31 319.393C428.31 318.547 428.447 317.769 428.723 317.059C429.008 316.34 429.405 315.715 429.913 315.186C430.422 314.657 431.02 314.249 431.708 313.963C432.396 313.667 433.152 313.519 433.978 313.519C434.793 313.519 435.545 313.667 436.233 313.963C436.931 314.249 437.534 314.657 438.043 315.186C438.551 315.705 438.942 316.324 439.217 317.044C439.503 317.753 439.646 318.536 439.646 319.393C439.646 320.251 439.503 321.039 439.217 321.759C438.942 322.479 438.551 323.103 438.043 323.633C437.534 324.151 436.931 324.559 436.233 324.855C435.545 325.141 434.793 325.284 433.978 325.284ZM433.978 323.839C434.751 323.839 435.433 323.648 436.026 323.267C436.629 322.876 437.101 322.347 437.439 321.68C437.778 321.013 437.947 320.251 437.947 319.393C437.947 318.536 437.778 317.774 437.439 317.107C437.101 316.44 436.629 315.916 436.026 315.535C435.433 315.154 434.751 314.964 433.978 314.964C433.205 314.964 432.517 315.154 431.914 315.535C431.321 315.916 430.855 316.44 430.517 317.107C430.178 317.774 430.009 318.536 430.009 319.393C430.009 320.251 430.178 321.013 430.517 321.68C430.855 322.347 431.321 322.876 431.914 323.267C432.517 323.648 433.205 323.839 433.978 323.839ZM442.807 325.125V320.346L439.409 314.694L438.837 313.741V313.678H440.631L440.663 313.741L441.219 314.694L443.632 318.774L446.077 314.694L446.633 313.741L446.681 313.678H448.427V313.741L447.855 314.694L444.458 320.346V325.125H442.807ZM454.464 326.522V313.058H457.544V314.376H455.893V325.204H457.544V326.522H454.464ZM459.977 325.125V325.061L460.358 324.109L464.471 313.678H466.074L470.186 324.109L470.583 325.061V325.125H468.805L468.773 325.061L468.424 324.109L467.725 322.283H462.788L462.089 324.109L461.724 325.061L461.692 325.125H459.977ZM463.343 320.838H467.17L465.264 315.869L463.343 320.838ZM476.005 325.284C475.274 325.284 474.576 325.162 473.909 324.919C473.242 324.675 472.644 324.31 472.115 323.823C471.596 323.336 471.183 322.728 470.876 321.997C470.58 321.256 470.432 320.388 470.432 319.393C470.432 318.409 470.585 317.552 470.892 316.821C471.199 316.08 471.612 315.466 472.131 314.98C472.66 314.493 473.258 314.127 473.925 313.884C474.592 313.641 475.285 313.519 476.005 313.519C476.862 313.519 477.64 313.667 478.339 313.963C479.037 314.26 479.614 314.678 480.069 315.218C480.535 315.747 480.826 316.371 480.942 317.091L479.307 317.472H479.244C479.169 316.975 478.979 316.541 478.672 316.17C478.376 315.789 477.995 315.493 477.529 315.281C477.074 315.069 476.566 314.964 476.005 314.964C475.264 314.964 474.597 315.138 474.004 315.488C473.422 315.826 472.962 316.324 472.623 316.98C472.295 317.636 472.131 318.441 472.131 319.393C472.131 320.346 472.295 321.156 472.623 321.823C472.962 322.479 473.422 322.982 474.004 323.331C474.597 323.67 475.264 323.839 476.005 323.839C476.851 323.839 477.566 323.611 478.148 323.156C478.741 322.691 479.106 322.045 479.244 321.219L480.942 321.473C480.805 322.288 480.503 322.982 480.037 323.553C479.572 324.114 478.99 324.543 478.291 324.839C477.603 325.136 476.841 325.284 476.005 325.284ZM484.222 325.125V315.122H480.618V313.678H489.461V315.122H485.873V325.125H484.222ZM492.053 324.109V325.061V325.125H490.401V325.061V324.109V314.694V313.741V313.678H492.053V313.741V314.694V324.109ZM497.23 325.125L493.293 314.694L492.927 313.741V313.678H494.69L494.722 313.741L495.071 314.694L498.056 322.934L501.025 314.694L501.374 313.741L501.406 313.678H503.136V313.741L502.771 314.694L498.834 325.125H497.23ZM503.889 325.125V313.678H511.398V315.122H505.54V318.345H510.239V319.806H505.54V323.68H511.398V325.125H503.889ZM517.792 313.058V326.522H514.711V325.204H516.379V314.376H514.711V313.058H517.792Z" fill="#FDFDF8"/>
<rect x="137.172" y="159.391" width="259.957" height="15.0011" rx="7.50055" fill="#F9D0DE"/>
<rect x="137.172" y="188.359" width="140.758" height="15.0011" rx="7.50055" fill="#FF22FC"/>
<rect x="137.172" y="217.32" width="175.307" height="15.0011" rx="7.50055" fill="#64FEFB"/>
<path d="M382.049 117.258H416.553C418.746 117.258 420.523 119.035 420.523 121.227V247.686C420.523 249.878 418.746 251.655 416.553 251.655H122.176C119.984 251.655 118.207 249.878 118.207 247.686V121.227C118.207 119.035 119.984 117.258 122.176 117.258H299.261" stroke="#4D4D4D" stroke-width="1.98464"/>
<path d="M199.48 339.633L428.597 339.633L532.697 339.633C534.889 339.633 536.666 337.856 536.666 335.664L536.666 302.475C536.666 300.283 534.889 298.506 532.697 298.506L199.48 298.506C197.287 298.506 195.51 300.283 195.51 302.475L195.51 335.663C195.51 337.856 197.287 339.633 199.48 339.633Z" stroke="#4D4D4D" stroke-width="1.98464"/>
<rect x="430.33" y="213.617" width="18.23" height="18.23" transform="rotate(90 430.33 213.617)" fill="#B4FDF9"/>
<path d="M416.953 223.126L417.695 222.37L420.321 225.009L420.321 218.026L421.49 218.026L421.49 224.996L424.129 222.384L424.857 223.14L420.898 227.071L416.953 223.126Z" fill="#1B1B1B"/>
<rect width="15.3731" height="15.3731" rx="3.08019" transform="matrix(1 0 0 -1 236.812 326.75)" fill="#FA4EDF"/>
<rect width="15.3731" height="15.3731" rx="3.08019" transform="matrix(1 0 0 -1 311.371 326.75)" fill="#FA4EDF"/>
<rect x="212.579" y="311.999" width="14.141" height="14.141" rx="2.46415" stroke="#FFCC02" stroke-width="1.23208"/>
<path d="M289.602 311.999H298.814C300.175 311.999 301.278 313.102 301.278 314.463V323.676C301.278 325.037 300.175 326.14 298.814 326.14H289.602C288.241 326.14 287.138 325.037 287.138 323.676V314.463C287.138 313.102 288.241 311.999 289.602 311.999Z" stroke="#FFCC02" stroke-width="1.23208"/>
<rect width="15.3731" height="15.3731" rx="3.08019" transform="matrix(1 0 0 -1 261.672 326.766)" fill="#FA4EDF" fill-opacity="0.48"/>
<rect width="15.3731" height="15.3731" rx="3.08019" transform="matrix(1 0 0 -1 336.221 326.766)" fill="#FA4EDF" fill-opacity="0.48"/>
<path d="M217.22 117.364V95.1378C217.22 92.9457 215.443 91.1686 213.251 91.1686H172.831C170.638 91.1686 168.861 89.3915 168.861 87.1993V2.00781" stroke="#4D4D4D" stroke-width="1.98464"/>
<path d="M221.242 252.867V296.692" stroke="#4D4D4D" stroke-width="1.98464"/>
<path d="M496.906 339.617V472.937" stroke="#4D4D4D" stroke-width="1.98464"/>
</svg>
